src/icons/fab-question.svg

<svg width="16" height="24" viewBox="0 0 16 24" fill="none" xmlns="http://www.w3.org/2000/svg">
<path d="M5.98785 17.5656L6.01976 15.4805C6.01976 14.9458 6.12612 14.5288 6.33882 14.2294C6.59407 13.652 7.03012 13.2243 7.64698 12.9463C8.2851 12.6469 9.0083 12.3154 9.81659 11.9519C10.8589 11.5669 11.6671 11.0216 12.2415 10.3159C12.8158 9.58879 13.1029 8.59437 13.1029 7.33264C13.1029 5.9212 12.635 4.81985 11.6991 4.02859C10.7631 3.21595 9.55071 2.80962 8.06175 2.80962C6.59407 2.80962 5.38164 3.10902 4.42445 3.70781C3.48854 4.3066 3.02058 5.26894 3.02058 6.59484H0.5C0.5 4.64877 1.17003 3.15179 2.51009 2.10391C3.87142 1.03464 5.7326 0.5 8.09366 0.5C9.60388 0.5 10.912 0.799396 12.0181 1.39819C13.1455 1.99698 14.0176 2.82032 14.6344 3.8682C15.2513 4.91608 15.5384 6.09228 15.4959 7.39679C15.4746 9.10763 15.0705 10.487 14.2835 11.5349C13.4964 12.5614 12.3372 13.3954 10.8057 14.037C10.1463 14.3364 9.64642 14.5716 9.30609 14.7427C8.96576 14.9138 8.73178 15.1062 8.60416 15.3201C8.47653 15.5126 8.40209 15.7799 8.38082 16.122C8.38082 16.4642 8.38082 16.9454 8.38082 17.5656H5.98785ZM7.16838 23.5C6.7217 23.5 6.32819 23.3396 5.98785 23.0188C5.66879 22.6767 5.50926 22.281 5.50926 21.8319C5.50926 21.3615 5.66879 20.9658 5.98785 20.645C6.32819 20.3243 6.7217 20.1639 7.16838 20.1639C7.61507 20.1639 7.99794 20.3243 8.317 20.645C8.63606 20.9658 8.80623 21.3615 8.8275 21.8319C8.8275 22.281 8.65734 22.6767 8.317 23.0188C7.99794 23.3396 7.61507 23.5 7.16838 23.5Z" fill="#314351"/>
</svg>

<svg width="16" height="24" fill="none" xmlns="http://www.w3.org/2000/svg"><path d="M5.988 17.566l.032-2.085c0-.535.106-.952.319-1.252.255-.577.691-1.005 1.308-1.283.638-.3 1.361-.63 2.17-.994 1.042-.385 1.85-.93 2.425-1.636.574-.727.86-1.722.86-2.983 0-1.412-.467-2.513-1.403-3.304-.936-.813-2.148-1.22-3.637-1.22-1.468 0-2.68.3-3.638.899-.935.599-1.403 1.56-1.403 2.887H.5c0-1.946.67-3.443 2.01-4.491C3.871 1.034 5.733.5 8.094.5c1.51 0 2.818.3 3.924.898 1.127.599 2 1.422 2.616 2.47.617 1.048.904 2.224.862 3.529-.021 1.71-.426 3.09-1.213 4.138-.787 1.026-1.946 1.86-3.477 2.502-.66.3-1.16.535-1.5.706-.34.17-.574.363-.702.577-.127.193-.202.46-.223.802v1.444H5.988zm1.18 5.934c-.446 0-.84-.16-1.18-.481a1.688 1.688 0 01-.479-1.187c0-.47.16-.866.479-1.187a1.67 1.67 0 011.18-.481c.447 0 .83.16 1.149.481.32.32.49.716.51 1.187 0 .449-.17.845-.51 1.187-.32.32-.702.481-1.149.481z" fill="#314351"/></svg>
